!!!!SEGMENT: pl-kk--kk-i-7--040_gorczycki-grzegorz-gerwazy--gaude-maria-virgo.krn
!!!cenid: 16xx:839
!!!COM: Gorczycki, Grzegorz Gerwazy
!!!COM-rismID: pe30009207
!!!CDT: ~1666-1734/04/30
!!!CNT: Polish
!!!OTL: Gaude Maria virgo
!!!PDT:
!!!AGN: Sacred
!!!YEC: Copyright 2022 Narodowy Instytut Fryderyka Chopina (https://polishscores.org)
!!!YEM: License CC-BY-4.0 (https://creativecommons.org/licenses/by/4.0)
!!!SMS-siglum: PL-Kk
!!!SMS-shelfmark: Kk.I.7
!!!SMS-shelfwork: 040 W
!!!SMS-variant:
!!!SMS-altvar:
!!!NIFC-rismSourceID: 300258077
!!!NIFC-rismChildID: 300258117
!!!NIFC-islandoraID: pl-kk:1956
!!!URL-pdf-islandora: https://repozytorium.nifc.pl/islandora/object/pl-kk%3A1956/datastream/PDF/view
!!!URL-scan: https://polish.musicsources.pl/pl/lokalizacje/galeria/rekopisy/6140 @EN{Scan on Polish Music Sources Website} @PL{Skany w portalu Dziedzictwo Muzyki Polskiej w otwartym dostępie}
!!!IIIF: https://repozytorium.nifc.pl/islandora/object/pl-kk%3A1956/datastream/IIIF/view
!!!ONB-nifc: UWAGA: C (skan 0036-0037, s.67-68), A (0121, s.62-63), T(0197, s.58), B(0287, s.60-61). Następny utwór: Gaude Maria virgo II
!!!AIN: 1 alto 1 bass 1 soprn 1 tenor
!!!key: d
!!!finalis: g
**kern	**text	**kern	**text	**kern	**text	**kern	**text
*part4	*	*part3	*	*part2	*	*part1	*
*staff4	*	*staff3	*	*staff2	*	*staff1	*
*I"BASSVS.	*	*I"TENOR.	*	*I"ALTVS.	*	*I"CANTVS.	*
*mI"Basso	*	*mI"Tenore	*	*mI"Alto	*	*mI"Soprano	*
*I'B	*	*I'T	*	*I'A	*	*I'S	*
*Ibass	*	*Itenor	*	*Ialto	*	*Isoprn	*
*ICvox	*	*ICvox	*	*ICvox	*	*ICvox	*
*clefF4	*	*clefC4	*	*clefC3	*	*clefC1	*
*	*	*mclefGv2	*	*mclefG2	*	*mclefG2	*
*k[b-]	*	*k[b-]	*	*k[b-]	*	*k[b-]	*
*d	*	*d	*	*d	*	*d	*
*M3/2	*	*M3/2	*	*M3/2	*	*M3/2	*
=1-	=1-	=1-	=1-	=1-	=1-	=1-	=1-
*2\right	*	*2\right	*	*2\right	*	*2\right	*
*xywh-#287:743,452,6422,1132	*	*xywh-#197:787,451,6237,1092	*	*xywh-#121:861,549,6307,1105	*	*xywh-#36:7189,458,6252,1053	*
!LO:TX:a:i:mod= :t=I.:note=zapisane przed pięciolinią, na wysokości pięciolinii	!	!	!	!	!	!	!
!LO:TX:a:i:mod= :t=G.\nG. \nG.:note=zapisane przed pięciolinią, na wysokości pięciolinii	!	!LO:TX:a:i:mod= :t=I.:note=zapisane przed pięciolinią, na wysokości pięciolinii	!	!LO:TX:a:i:mod= :t=I.:note=zapisane przed pięciolinią, na wysokości pięciolinii	!	!	!
!LO:TX:a:i:mod= :t=Post 7gesimam Tractus.	!	!LO:TX:a:i:mod= :t=Post 7gesimam Tract(us)	!	!LO:TX:a:i:mod= :t=Post 7gesimam Tractus.	!	!LO:TX:a:i:mod= :t=Post 7gesimam Tract(us).	!
!LO:TX:t=P:problem=w źródle znaki przykluczowe BB- B-	!	!	!	!LO:TX:t=P:problem=kreska pseudotaktowa	!	!	!
1G	Gau-	1B-	Gau-	1.d	Gau-	2r	.
.	.	.	.	.	.	2dd\	Gau-
!LO:TX:t=P:problem=kreska pseudotaktowa	!	!LO:TX:t=P:global:problem=rozdzielacz słów	!	!	!	!LO:TX:t=P:problem=kreska pseudotaktowa	!
2F#X\	-de	2A,\	-de	.	.	2dd\	-de
=2-	=2-	=2-	=2-	=2-	=2-	=2-	=2-
*	*	*	*ij	*	*	*	*
!LO:TX:t=P:problem=kreska pseudotaktowa	!	!LO:TX:t=P:problem=kreska pseudotaktowa	!	!LO:TX:t=P:global:problem=rozdzielacz słów	!	!	!
!	!	!	!LO:MO:mod=gau-	!	!	!	!
1.G	gau-	1.B-	Gau-	2d,\	-de	4b-\	gau-
.	.	.	.	.	.	4a\	.
*	*	*	*	*	*ij	*	*
!	!	!	!	!	!LO:MO:mod=gau-	!	!
.	.	.	.	2g\	Gau-	4b-\	.
.	.	.	.	.	.	4g\	.
!	!	!	!	!LO:TX:t=P:problem=kreska pseudotaktowa	!	!	!
.	.	.	.	2g\	de	4b-\	.
*	*	*	*	*	*Xij	*	*
!	!	!	!	!	!	!LO:TX:t=P:problem=kreska pseudotaktowa	!
.	.	.	.	.	.	4cc\	.
=3-	=3-	=3-	=3-	=3-	=3-	=3-	=3-
!LO:TX:t=P:problem=kreska pseudotaktowa	!	!	!	!	!	!	!
1.D	-de	2A,\	-de	4f#X\	gau-	1.dd	.
*	*	*	*Xij	*	*	*	*
.	.	.	.	4e\	.	.	.
.	.	2d\	gau-	4f#\	.	.	.
.	.	.	.	4d\	.	.	.
!	!	!LO:TX:t=P:problem=kreska pseudotaktowa	!	!	!	!	!
.	.	2d\	-de	4e\	.	.	.
!	!	!	!	!LO:TX:t=P:problem=kreska pseudotaktowa	!	!	!
.	.	.	.	4f#\	.	.	.
=4-	=4-	=4-	=4-	=4-	=4-	=4-	=4-
!	!	!	!	!	!	!LO:TX:t=P:global:problem=rozdzielacz słów	!
2r	.	4B-\	gau-	1g	.	2dd,\	-de
.	.	4A\	.	.	.	.	.
*	*	*	*	*	*	*	*ij
!	!LO:MO:mod=gau-	!	!	!	!	!	!
2G\	Gau-	4B-\	.	.	.	2b-\	gau-
.	.	4G\	.	.	.	.	.
!LO:TX:t=P:problem=kreska pseudotaktowa	!	!	!	!LO:TX:t=P:problem=kreska pseudotaktowa	!	!LO:TX:t=P:problem=kreska pseudotaktowa	!
2G\	-de	4B-\	.	2g\	-de	2b-\	-de
*	*	*	*	*	*	*	*Xij
!	!	!LO:TX:t=P:problem=kreska pseudotaktowa	!	!	!	!	!
.	.	4c\	.	.	.	.	.
=5-	=5-	=5-	=5-	=5-	=5-	=5-	=5-
(>4F#X\	gau-	1d	.	2r	.	4a\	gau-
4E\	.	.	.	.	.	4g\	.
*	*	*	*	*	*ij	*	*
4F#\	.	.	.	2d\	gau-	4a\	.
4D\	.	.	.	.	.	4f#X/	.
!	!	!LO:TX:t=P:problem=kreska pseudotaktowa	!	!	!	!	!
4E\	.	2d\	-de	2d\	-de	4g\	.
*	*	*	*	*	*Xij	*	*
!LO:TX:t=P:problem=kreska pseudotaktowa	!	!	!	!	!	!	!
4F#\)	.	.	.	.	.	4a\	.
=6-	=6-	=6-	=6-	=6-	=6-	=6-	=6-
!	!	!	!	!LO:SIC:o=4B-X/	!	!	!
2G\	.	2r	.	4B-	gau-	1b-	.
.	.	.	.	4A/	.	.	.
!LO:TX:t=P:global:problem=rozdzielacz słów	!	!	!	!	!	!	!
2G,\	-de	2G/	gau-	4B-/	.	.	.
.	.	.	.	4G/	.	.	.
!LO:TX:t=P:problem=kreska pseudotaktowa	!	!LO:TX:t=P:problem=kreska pseudotaktowa	!	!	!	!LO:TX:t=P:problem=kreska pseudotaktowa	!
2G\	Ma-	2G/	-de	4B-/	.	2b-\	-de
!	!	!	!	!LO:TX:t=P:problem=kreska pseudotaktowa	!	!	!
.	.	.	.	4c/	.	.	.
=7-	=7-	=7-	=7-	=7-	=7-	=7-	=7-
1D	-ri-	4F#X/	gau-	2d\	.	2r	.
.	.	4E/	.	.	.	.	.
*	*	*	*	*	*	*	*ij
.	.	4F#/	.	2d\	-de	2dd\	gau-
.	.	4D/	.	.	.	.	.
!LO:TX:t=P:problem=kreska pseudotaktowa	!	!	!	!LO:TX:t=P:problem=kreska pseudotaktowa	!	!LO:TX:t=P:problem=kreska pseudotaktowa	!
2D/	-a	4E/	.	2d\	Ma-	2dd\	-de
*	*	*	*	*	*	*	*Xij
!	!	!LO:TX:t=P:problem=kreska pseudotaktowa	!	!	!	!	!
.	.	4F#/	.	.	.	.	.
=8-	=8-	=8-	=8-	=8-	=8-	=8-	=8-
!LO:TX:t=P:problem=kreska pseudotaktowa	!	!	!	!	!	!	!
1.E-X	Vir-	2G/	.	(>2.g\	-ri-	4b-\	gau-
.	.	.	.	.	.	4a\	.
.	.	2G/	-de	.	.	4b-\	.
.	.	.	.	4f#X\)	.	4g\	.
!	!	!LO:TX:t=P:problem=kreska pseudotaktowa	!	!	!	!	!
.	.	2G/	Ma-	(>4g\	-a	4b-\	.
!	!	!	!	!LO:TX:t=P:problem=kreska pseudotaktowa	!	!	!
.	.	.	.	4a\)	.	4cc\	.
=9-	=9-	=9-	=9-	=9-	=9-	=9-	=9-
2D,\	-go	1A	-ri-	1f#X	Vir-	2dd\	.
2D\	gau-	.	.	.	.	2dd\	-de
!LO:TX:t=P:problem=kreska pseudotaktowa	!	!LO:TX:t=P:problem=kreska pseudotaktowa	!	!LO:TX:t=P:problem=kreska pseudotaktowa	!	!	!
2D\	-de	2A/	-a	2f#\	-go	2a\	Ma-
=10-	=10-	=10-	=10-	=10-	=10-	=10-	=10-
4BB-/	gau-	1G	Vir-	2r	.	1b-	-ri-
4AA/	.	.	.	.	.	.	.
4BB-/	.	.	.	2g\	gau-	.	.
4GG/	.	.	.	.	.	.	.
!	!	!LO:TX:t=P:problem=kreska pseudotaktowa	!	!	!	!LO:TX:t=P:problem=kreska pseudotaktowa	!
4BB-/	.	2G/	-go	2g\	-de	2b-\	-a
!LO:TX:t=P:problem=kreska pseudotaktowa	!	!	!	!	!	!	!
4C/	.	.	.	.	.	.	.
*	*	*	*	*	*	*custos:a	*
!	!	!	!	!	!	!LO:TX:a:i:mod= :t=I.:note=zapisane za pięciolinią	!
!	!	!	!	!	!	!LO:LB:g=original	!
=11-	=11-	=11-	=11-	=11-	=11-	=11-	=11-
*	*	*	*	*	*	*xywh-#36:7319,1372,5990,809	*
!	!	!	!LO:MO:mod=gau-	!	!	!	!
2D/	.	2d\	Gau-	(>4f#X\	gau-	2.a\	Vir-
.	.	.	.	4e\	.	.	.
2D/	-de	2d\	-de	4f#\	.	.	.
.	.	.	.	4d\	.	4g\	.
!LO:TX:t=P:problem=kreska pseudotaktowa	!	!	!	!	!	!	!
2D/	Ma-	2d\	Ma-	4e\	.	4a\	.
!	!	!	!	!LO:TX:t=P:problem=kreska pseudotaktowa	!	!	!
.	.	.	.	4f#\)	.	4b-\	.
*	*	*	*	*custos:g	*	*	*
!	!	!	!	!LO:LB:g=original	!	!	!
=12-	=12-	=12-	=12-	=12-	=12-	=12-	=12-
*	*	*	*	*xywh-#121:1352,1531,5860,693	*	*	*
1C	-ri-	1e-X	-ri-	2g\	.	2cc\	.
.	.	.	.	2g\	-de	2.g\	.
!LO:TX:t=P:problem=kreska pseudotaktowa	!	!LO:TX:t=P:problem=kreska pseudotaktowa	!	!LO:TX:t=P:problem=kreska pseudotaktowa	!	!	!
2E-X\	-a	2c\	-a	2g\	Ma-	.	.
!	!	!	!	!	!	!LO:TX:t=P:problem=kreska pseudotaktowa	!
.	.	.	.	.	.	4a\	.
*	*	*custos:d	*	*	*	*	*
!LO:LB:g=original	!	!LO:LB:g=original	!	!	!	!	!
=13-	=13-	=13-	=13-	=13-	=13-	=13-	=13-
*xywh-#287:1204,1374,5855,787	*	*xywh-#197:1238,1293,5805,721	*	*	*	*	*
!LO:TX:t=P:problem=kreska pseudotaktowa	!	!	!	!	!	!	!
1.D	Vir-	1.d	Vir-	2.g\	-ri-	2b-\	.
.	.	.	.	.	.	1a	.
!	!	!	!	!LO:SIC:v:o=4a\	!	!	!
.	.	.	.	4g	-a	.	.
!	!	!	!	!LO:TX:t=P:problem=kreska pseudotaktowa	!	!	!
.	.	.	.	2f#X\	Vir-	.	.
=14-	=14-	=14-	=14-	=14-	=14-	=14-	=14-
!	!LO:MO:mod=-go	!LO:TX:t=P:problem=kreska pseudotaktowa	!	!	!	!LO:TX:t=P:problem=kreska pseudotaktowa	!LO:MO:mod=-go
2GG,/	-go:	1.B-	-go	2g,\	-go	1.g	-go.
2E-X\	cun-	.	.	2g\	cun-	.	.
!LO:TX:t=P:problem=kreska pseudotaktowa	!	!	!	!LO:TX:t=P:problem=kreska pseudotaktowa	!LO:MO:mod=-ctas	!	!
2D\	-ctas	.	.	2fn\	-ctis	.	.
=15-	=15-	=15-	=15-	=15-	=15-	=15-	=15-
2.E-X\	hae-	2r	.	2.g\	hae-	2r	.
.	.	2B-\	cun-	.	.	2b-\	cun-
4D/	-re-	.	.	4f\	-re-	.	.
!LO:TX:t=P:problem=kreska pseudotaktowa	!	!LO:TX:t=P:problem=kreska pseudotaktowa	!	!LO:TX:t=P:problem=kreska pseudotaktowa	!	!LO:TX:t=P:problem=kreska pseudotaktowa	!
2C,/	-ses	2A\	-ctas	2e-X\	-ses	2cc\	-ctas
=16-	=16-	=16-	=16-	=16-	=16-	=16-	=16-
*	*ij	*	*	*	*	*	*
2.BB-/	hae-	2.B-\	hae-	2.d\	hae-	2.dd\	hae-
4BB-/	-re-	4B-\	-re-	4e-X\	.	4cc\	-re-
!LO:TX:t=P:problem=kreska pseudotaktowa	!	!LO:TX:t=P:problem=kreska pseudotaktowa	!LO:MO:mod=-ses	!	!	!LO:TX:t=P:problem=kreska pseudotaktowa	!
2BB-,/	-ses	2B-\	-ses,	4f\	.	2b-\	-ses
*	*Xij	*	*	*	*	*	*
!	!	!	!	!LO:TX:t=P:problem=kreska pseudotaktowa	!	!	!
.	.	.	.	4e-\	.	.	.
=17-	=17-	=17-	=17-	=17-	=17-	=17-	=17-
!	!	!LO:N:vis=1.	!	!	!	!	!
1B-	cun-	1d	cun-	2.d\	.	1.r	.
.	.	.	.	4e-X\	-re-	.	.
!LO:TX:t=P:problem=kreska pseudotaktowa	!LO:MO:null:mod=-ctas	!LO:TX:t=P:problem=kreska pseudotaktowa	!LO:MO:null:mod=-ctas	!LO:TX:t=P:problem=kreska pseudotaktowa	!	!	!
2A\	.	2c\	.	2f\	-ſes	.	.
=18-	=18-	=18-	=18-	=18-	=18-	=18-	=18-
!LO:SIC:o=2.B-\	!LO:MO:mod=hae-	!	!LO:MO:mod=hae-	!	!	!	!
(2.B-	-ctas	(2.d\	-ctas	2r	.	2r	.
*	*	*	*	*	*	*	*ij
.	.	.	.	2f\	cun-	2fny/	cun-
!LO:SIC:o=(>4A\	!LO:MO:mod=.	!	!LO:MO:mod=.	!	!	!	!
4A)	hae-	4c\)	hae-	.	.	.	.
!LO:SIC:o=2G\)	!	!	!	!	!	!	!
!LO:TX:t=P:problem=kreska pseudotaktowa	!	!LO:TX:t=P:problem=kreska pseudotaktowa	!	!LO:TX:t=P:problem=kreska pseudotaktowa	!	!	!
2G	.	2B-\	.	2en\	-ctas	2g/	-ctas
=19-	=19-	=19-	=19-	=19-	=19-	=19-	=19-
2.Fny\	.	2.A/	.	2.f\	hae-	2.a\	hae-
4F\	-re-	4A/	-re-	4f\	-re-	4a\	-re-
!LO:TX:t=P:problem=kreska pseudotaktowa	!	!LO:TX:t=P:problem=kreska pseudotaktowa	!	!LO:TX:t=P:problem=kreska pseudotaktowa	!	!LO:TX:t=P:problem=kreska pseudotaktowa	!
2F\	-ses	2A/	-ses,	2f\	-ses	2a\	-ses
*	*	*	*	*	*	*	*Xij
=20-	=20-	=20-	=20-	=20-	=20-	=20-	=20-
2D\	so-	2d\	so-	2f\	so-	2b-\	so-
2D,\	-la	2d\	-la	2f\	-la	2f/	-la
!LO:TX:t=P:problem=kreska pseudotaktowa	!	!	!	!	!	!LO:TX:t=P:problem=kreska pseudotaktowa	!
2D\	in-	2d\	in-	2f\	in-	[<2b-\	in-
=21-	=21-	=21-	=21-	=21-	=21-	=21-	=21-
1E-X	-te-	1G	-te-	1g	-te-	2b-\]	.
.	.	.	.	.	.	4g\	-te-
!	!	!	!	!	!	!	!LO:MO:mod=.
.	.	.	.	.	.	4a\	-re-
!LO:TX:t=P:problem=kreska pseudotaktowa	!	!LO:TX:t=P:problem=kreska pseudotaktowa	!	!	!	!	!LO:MO:mod=-re-
2E-\	-re-	2G/	-re-	2g\	-re-	1b-\	-mi-
=22-	=22-	=22-	=22-	=22-	=22-	=22-	=22-
1F	-mi-	1c	-mi-	[>1.f	-mi-	.	.
!	!	!	!	!	!	!	!LO:MO:null:mod=-mi-
.	.	.	.	.	.	2b-\	.
!	!	!	!	!	!	!LO:TX:t=P:problem=kreska pseudotaktowa	!
!LO:TX:t=P:problem=kreska pseudotaktowa	!	!LO:TX:t=P:problem=kreska pseudotaktowa	!	!	!	!	!
2FF/	.	2c,\	-ſti.	.	.	2a\	.
*	*	*	*	*	*	*custos:b	*
!	!	!	!	!	!	!LO:LB:g=original	!
=23-	=23-	=23-	=23-	=23-	=23-	=23-	=23-
!LO:TX:t=P:problem=kreska pseudotaktowa	!	!	!	!	!	!	!
*	*	*	*	*	*	*xywh-#36:7319,2051,6138,783	*
1.BB-	-sti.	2B-\	Quae	1.f]	.	1b-,	-sti
.	.	2B-\	Ga-	.	.	.	.
!	!	!LO:TX:t=P:problem=kreska pseudotaktowa	!LO:MO:null:mod=-bri-	!	!	!LO:TX:t=P:problem=kreska pseudotaktowa	!
.	.	2B-\	.	.	.	2b-\	in-
=24-	=24-	=24-	=24-	=24-	=24-	=24-	=24-
!LO:N:vis=00	!	!	!LO:MO:mod=-e-	!LO:TX:t=P:problem=kreska pseudotaktowa	!LO:MO:mod=-sti.	!	!
00.r	.	4A\	-bri-	1.f,	-sti	1cc	-te-
.	.	4G\	.	.	.	.	.
!	!	!	!LO:MO:mod=.	!	!	!	!
.	.	4A\	-e-	.	.	.	.
.	.	4B-\	.	.	.	.	.
.	.	4c\	.	.	.	2cc\	-re-
!	!	!LO:TX:t=P:problem=kreska pseudotaktowa	!	!	!	!	!
.	.	4A\	.	.	.	.	.
!	!	!	!	!LO:LB:g=original	!	!	!
=25-	=25-	=25-	=25-	=25-	=25-	=25-	=25-
*	*	*	*	*xywh-#121:1387,2137,5860,640	*	*	*
!	!	!	!	!LO:TX:a:mod= :t=1.	!	!	!
!	!	!	!	!LO:TX:t=P:problem=kreska pseudotaktowa	!	!	!
.	.	2B-\	.	1.r	.	1dd	-mi-
.	.	2Fny/	-lis	.	.	.	.
!	!	!LO:TX:t=P:problem=kreska pseudotaktowa	!LO:MO:mod=Ar-	!	!	!LO:TX:t=P:problem=kreska pseudotaktowa	!
.	.	2B-\	ar-	.	.	2dd\	-ſti.
!	!	!LO:LB:g=original	!	!	!	!	!
=26-	=26-	=26-	=26-	=26-	=26-	=26-	=26-
*	*	*xywh-#197:1258,1865,5815,731	*	*	*	*	*
!	!	!	!	!	!	!LO:N:vis=00	!
.	.	2.A\	-chan-	2f\	Quae	00.r	.
.	.	.	.	2f\	Ga-	.	.
.	.	4A\	-ge-	.	.	.	.
!	!	!LO:TX:t=P:problem=kreska pseudotaktowa	!	!LO:TX:t=P:problem=kreska pseudotaktowa	!	!	!
.	.	2A\	-li	2f\	-bri-	.	.
=27-	=27-	=27-	=27-	=27-	=27-	=27-	=27-
!	!	!	!	!	!LO:MO:null:mod=-e-	!	!
.	.	1B-	di-	4d\	.	.	.
.	.	.	.	4c\	.	.	.
!	!	!	!	!	!LO:MO:mod=.	!	!
.	.	.	.	4d\	-e-	.	.
.	.	.	.	4e-X\	.	.	.
!	!	!LO:TX:t=P:problem=kreska pseudotaktowa	!	!	!	!	!
.	.	2B-\	-ctis	4f\	.	.	.
!	!	!	!	!LO:TX:t=P:problem=kreska pseudotaktowa	!	!	!
.	.	.	.	4d\	.	.	.
=28-	=28-	=28-	=28-	=28-	=28-	=28-	=28-
!LO:N:vis=00	!	!	!	!	!	!	!
00.r	.	2c\	cre-	2e-X\	.	.	.
.	.	2G/	.	2B-/	-lis	.	.
!	!	!	!	!LO:TX:t=P:problem=kreska pseudotaktowa	!LO:MO:mod=Ar-	!	!
.	.	1c\	.	2e-\	ar-	.	.
=29-	=29-	=29-	=29-	=29-	=29-	=29-	=29-
.	.	.	.	2.d\	-chan-	.	.
!	!	!LO:TX:t=P:problem=kreska pseudotaktowa	!	!	!	!	!
.	.	1B-	.	.	.	.	.
.	.	.	.	4d\	-ge-	.	.
.	.	.	.	2en,\	-li	.	.
=30-	=30-	=30-	=30-	=30-	=30-	=30-	=30-
!	!	!	!	!	!	!LO:TX:t=P:problem=kreska pseudotaktowa	!
.	.	1.A	-di-	2f\	di-	1.r	.
.	.	.	.	2c/	-ctis	.	.
.	.	.	.	1f\	cre-	.	.
=31-	=31-	=31-	=31-	=31-	=31-	=31-	=31-
!LO:TX:t=P:problem=kreska pseudotaktowa	!	!	!	!	!	!	!
.	.	1.G	-di-	.	.	2b-\	Quae
.	.	.	.	2d\	-di-	2b-\	Ga-
!	!	!	!	!LO:TX:t=P:problem=kreska pseudotaktowa	!	!LO:TX:t=P:problem=kreska pseudotaktowa	!
.	.	.	.	2e\	-di-	2b-\	-bri-
=32-	=32-	=32-	=32-	=32-	=32-	=32-	=32-
!	!	!LO:TX:t=P:problem=kreska pseudotaktowa	!	!LO:TX:t=P:problem=kreska pseudotaktowa	!	!	!
2F,\	Quae	1.F	-sti	1.f,	-ſti	4a\	-e-
.	.	.	.	.	.	4g\	.
2F\	Ga-	.	.	.	.	4a\	.
.	.	.	.	.	.	4b-\	.
*custos:D	*	*	*	*	*	*	*
!LO:TX:t=P:problem=kreska pseudotaktowa	!	!	!	!	!	!	!
2F\	-bri-	.	.	.	.	4cc\	.
.	.	.	.	.	.	4a\	.
!LO:LB:g=original	!	!	!	!	!	!	!
=33-	=33-	=33-	=33-	=33-	=33-	=33-	=33-
*xywh-#287:1290,1950,5836,719	*	*	*	*	*	*	*
!	!	!LO:N:vis=0	!	!	!	!	!
4D\	-e-	0.r	.	2f\	quae	2b-\	.
4C\	.	.	.	.	.	.	.
4D\	.	.	.	2f\	Ga-	2f/	-lis
4E-X\	.	.	.	.	.	.	.
!	!	!	!	!	!	!LO:TX:t=P:problem=kreska pseudotaktowa	!LO:MO:mod=Ar-
4F\	.	.	.	2f\	-bri-	2b-\	ar-
!LO:TX:t=P:problem=kreska pseudotaktowa	!	!	!	!	!	!	!
4D\	.	.	.	.	.	.	.
=34-	=34-	=34-	=34-	=34-	=34-	=34-	=34-
!	!	!LO:TX:t=P:problem=kreska pseudotaktowa	!	!	!	!	!
2E-X\	.	.	.	2.e-X\	-e-	2.g/	-chan-
2BB-,/	-lis	.	.	.	.	.	.
.	.	.	.	4e-\	-lis	(<4f/	.
!LO:TX:t=P:problem=kreska pseudotaktowa	!LO:MO:mod=Ar-	!	!	!LO:TX:t=P:problem=kreska pseudotaktowa	!LO:MO:mod=Ar-	!	!
2E-\	ar-	.	.	2e-\	ar-	4g/	.
.	.	.	.	.	.	4a/)	.
=35-	=35-	=35-	=35-	=35-	=35-	=35-	=35-
!	!	!	!LO:MO:mod=quae	!	!	!	!
2.D/	-chan-	2B-\	Quae	2.f\	-chan-	2.b-\	.
.	.	2B-\	Ga-	.	.	.	.
4D/	-ge-	.	.	4f\	-ge-	4b-\	-ge-
!LO:TX:t=P:problem=kreska pseudotaktowa	!	!LO:TX:t=P:problem=kreska pseudotaktowa	!	!	!	!LO:TX:t=P:problem=kreska pseudotaktowa	!
2D/	-li	2B-\	-bri-	2f\	-li	2b-\	-li
=36-	=36-	=36-	=36-	=36-	=36-	=36-	=36-
2E-X\	di-	2.G/	-e-	2g\	di-	1b-	di-
2BB-,/	-ctis	.	.	2d\	-ctis	.	.
.	.	4A,/	-lis	.	.	.	.
!	!	!	!	!LO:TX:t=P:problem=kreska pseudotaktowa	!	!	!
1E-\	cre-	4B-\	di-	2g\	cre-	2g,/	-ctis
!	!	!LO:TX:t=P:problem=kreska pseudotaktowa	!	!	!	!	!
.	.	4B-\	-ctis	.	.	.	.
=37-	=37-	=37-	=37-	=37-	=37-	=37-	=37-
.	.	2c\	cre-	1.f	-di-	2a\	cre-
!LO:TX:t=P:problem=kreska pseudotaktowa	!	!	!	!	!	!LO:TX:t=P:problem=kreska pseudotaktowa	!
1D	-di-	1d	-di-	.	.	1b-	-di-
*	*	*	*	*custos:e-	*	*	*
!	!	!	!	!LO:LB:g=original	!	!	!
=38-	=38-	=38-	=38-	=38-	=38-	=38-	=38-
*	*	*	*	*xywh-#121:1387,2654,5878,666	*	*	*
!LO:TX:t=P:problem=kreska pseudotaktowa	!	!	!	!	!	!	!
1.C	-di-	2e-X\	-di-	1.e-X	-di-	1b-	-di-
!	!	!LO:TX:t=P:problem=kreska pseudotaktowa	!	!	!	!	!
.	.	1c	.	.	.	.	.
.	.	.	.	.	.	2a\	.
*	*	*	*	*	*	*custos:b-	*
!	!	!	!	!	!	!LO:LB:g=original	!
=39-	=39-	=39-	=39-	=39-	=39-	=39-	=39-
*	*	*	*	*	*	*xywh-#36:7319,2739,5894,827	*
!	!LO:MO:mod=-sti.	!	!	!	!	!	!
1BB-,	-sti;	1d,	-sti,	1d,	-sti.	1b-,	-sti.
!LO:TX:t=P:problem=kreska pseudotaktowa	!LO:MO:mod=Dum	!	!LO:MO:mod=Dum	!LO:TX:t=P:problem=kreska pseudotaktowa	!	!	!
2G\	dum	2d\	dum	2g\	Dum	2bn\	Dum
=40-	=40-	=40-	=40-	=40-	=40-	=40-	=40-
2.C/	Vir-	1e-X	Vir-	1g	Vir-	1cc	Vir-
(>4D\	.	.	.	.	.	.	.
4E-X\	.	2e-\	-go	2g\	-go	2cc\	-go
!LO:TX:t=P:problem=kreska pseudotaktowa	!	!	!	!	!	!	!
4F\)	.	.	.	.	.	.	.
=41-	=41-	=41-	=41-	=41-	=41-	=41-	=41-
*	*	*	*	*	*ij	*	*ij
!	!	!	!LO:MO:mod=[Vir-	!	!	!	!
1G	.	1d	De-	1g	Vir-	1bn	Vir-
!LO:TX:t=P:problem=kreska pseudotaktowa	!	!LO:TX:t=P:problem=kreska pseudotaktowa	!LO:MO:mod=-go]	!	!	!LO:TX:t=P:problem=kreska pseudotaktowa	!
2E-X\	-go	2e-X\	-um	1g\	-go	2g,/	-go
*	*	*	*	*	*Xij	*	*Xij
!	!	!LO:LB:g=original	!	!	!	!	!
=42-	=42-	=42-	=42-	=42-	=42-	=42-	=42-
*	*	*xywh-#197:1268,2346,5785,782	*	*	*	*	*
!LO:TX:t=P:problem=kreska pseudotaktowa	!	!	!LO:MO:mod=De-	!	!	!	!
1.A-X	De-	1c	DE-	.	.	1.cc	De-
.	.	.	.	(>2g\	De-	.	.
!	!	!	!	!LO:TX:t=P:problem=kreska pseudotaktowa	!	!	!
.	.	2f\	.	2f\)	.	.	.
=43-	=43-	=43-	=43-	=43-	=43-	=43-	=43-
1G,	-um	1d,	-um	1g,	-um	1bn,	-um
!LO:TX:t=P:problem=kreska pseudotaktowa	!	!	!	!LO:TX:t=P:problem=kreska pseudotaktowa	!	!	!
2c\	et	2e-X\	et	2g\	et	2cc\	et
=44-	=44-	=44-	=44-	=44-	=44-	=44-	=44-
!	!	!	!LO:MO:mod=ho-	!	!LO:MO:mod=ho-	!	!LO:MO:mod=ho-
2.F\	ho-	2.e-\	Ho-	2.a-X\	Ho-	2.cc\	Ho-
4F\	-mi-	4e-\	-mi-	4a-\	-mi-	4cc\	-mi-
!LO:TX:t=P:problem=kreska pseudotaktowa	!	!LO:TX:t=P:problem=kreska pseudotaktowa	!	!LO:TX:t=P:problem=kreska pseudotaktowa	!	!LO:TX:t=P:problem=kreska pseudotaktowa	!
2B-\	-nem	2d\	-nem	2f\	-nem	2b-X\	-nem
*custos:E-	*	*	*	*	*	*	*
!LO:LB:g=original	!	!	!	!	!	!	!
=45-	=45-	=45-	=45-	=45-	=45-	=45-	=45-
*xywh-#287:1252,2487,5826,719	*	*	*	*	*	*	*
1E-X	ge-	1c	ge-	1g	ge-	2.cc\	ge-
.	.	.	.	.	.	4b-\	.
!	!	!	!	!	!LO:MO:null:mod=-nu-	!LO:MO:mod=[2a-	!
1F\	-nu-	1c\	-nu-	2.f\	.	1a-X\	-nu-
.	.	.	.	.	.	.	.
=46-	=46-	=46-	=46-	=46-	=46-	=46-	=46-
!	!	!	!	!	!	!LO:MO:null:mod=2a-]	!
.	.	.	.	.	.	.	.
!	!	!	!	!	!LO:MO:mod=.	!	!
.	.	.	.	4e-X\	-nu-	.	.
!LO:TX:t=P:problem=kreska pseudotaktowa	!	!	!	!LO:TX:t=P:problem=kreska pseudotaktowa	!	!LO:TX:t=P:problem=kreska pseudotaktowa	!
1G	-i-	(>2c\	-i-	1d	-i-	1g	-i-
!	!	!LO:TX:t=P:problem=kreska pseudotaktowa	!	!	!	!	!
.	.	2Bn\)	.	.	.	.	.
=47-	=47-	=47-	=47-	=47-	=47-	=47-	=47-
!	!LO:MO:mod=-sti	!	!	!	!LO:MO:mod=-sti	!	!LO:MO:mod=-sti
2C,/	-sti,	2c,\	-sti	2en,\	-sti,	2g,/	-sti,
2E-X\	et	2B-X\	et	2e-X\	et	2g/	et
!LO:TX:t=P:problem=kreska pseudotaktowa	!	!LO:TX:t=P:problem=kreska pseudotaktowa	!	!LO:TX:t=P:problem=kreska pseudotaktowa	!	!	!
2E-\	post	2B-\	post	2e-\	post	2g/	post
=48-	=48-	=48-	=48-	=48-	=48-	=48-	=48-
1E-	par-	1A-X	par-	1f	par-	1a-X	par-
!LO:TX:t=P:problem=kreska pseudotaktowa	!	!LO:TX:t=P:problem=kreska pseudotaktowa	!	!	!	!	!
2D/	-tum	2A-/	-tum	2f\	-tum	2f/	-tum
=49-	=49-	=49-	=49-	=49-	=49-	=49-	=49-
!LO:SIC:v:o=1E	!	!	!	!	!	!	!
1E-	Vir-	1G	Vir-	1e-X	Vir-	1g	Vir-
!LO:TX:t=P:problem=kreska pseudotaktowa	!	!	!	!	!	!	!
!LO:SIC:v:o=2E\	!	!LO:TX:t=P:problem=kreska pseudotaktowa	!	!LO:TX:t=P:problem=kreska pseudotaktowa	!	!LO:TX:t=P:problem=kreska pseudotaktowa	!
2E-	-go	2G/	-go	2e-\	-go	2g,/	-go
=50-	=50-	=50-	=50-	=50-	=50-	=50-	=50-
!LO:TX:t=P:problem=kreska pseudotaktowa	!	!	!	!	!	!	!
1.r	.	2E-X/	in-	2e-\	in-	2g/	in-
.	.	2G/	-vi-	2e-\	-vi-	2g/	-vi-
!	!	!LO:TX:t=P:problem=kreska pseudotaktowa	!	!LO:TX:t=P:problem=kreska pseudotaktowa	!	!	!
.	.	2E-/	-o-	2e-\	-o-	2g/	-o-
=51-	=51-	=51-	=51-	=51-	=51-	=51-	=51-
2BB-/	in-	1B-	-la-	(>4d\	-la-	1f	-la-
.	.	.	.	4e-X\	.	.	.
2D/	-vi-	.	.	2f\)	.	.	.
!LO:TX:t=P:problem=kreska pseudotaktowa	!	!	!	!LO:TX:t=P:problem=kreska pseudotaktowa	!	!LO:TX:t=P:problem=kreska pseudotaktowa	!
2BB-/	-o-	2B-\	-ta	2d\	.	2b-\	-ta
*	*	*	*	*custos:g	*	*	*
!	!	!	!	!LO:LB:g=original	!	!LO:LB:g=original	!
=52-	=52-	=52-	=52-	=52-	=52-	=52-	=52-
*	*	*	*	*xywh-#121:1387,3128,5860,710	*	*xywh-#36:7284,3436,6191,801	*
2E-X\	-la-	[>1.B-	per-	2g\	.	2b-\	in-
4D\	.	.	.	4f\	.	2dd\	-vi-
4E-\	.	.	.	4g\	.	.	.
4D\	.	.	.	4f\	.	2b-\	-o-
!LO:TX:t=P:problem=kreska pseudotaktowa	!	!	!	!LO:SIC:v:o=4eny\	!	!	!
4C/	.	.	.	4e-	.	.	.
=53-	=53-	=53-	=53-	=53-	=53-	=53-	=53-
!	!	!LO:TX:t=P:problem=kreska pseudotaktowa	!	!	!	!	!
2BB-/	.	1.B-]	.	1d	.	2dd\	-la-
4BB-/	.	.	.	.	.	4dd\	.
4C/	.	.	.	.	.	4ee-X\	.
!	!	!	!	!LO:TX:t=P:problem=kreska pseudotaktowa	!	!	!
4BB-/	.	.	.	2f\	-ta	4dd\	.
!LO:TX:t=P:problem=kreska pseudotaktowa	!	!	!	!	!	!LO:TX:t=P:problem=kreska pseudotaktowa	!
4AA/	.	.	.	.	.	4cc\	.
=54-	=54-	=54-	=54-	=54-	=54-	=54-	=54-
2GG/	.	[>1.B-	-man-	2B-/	in-	2b-\	.
4G\	.	.	.	2d\	-vi-	4b-\	.
4A-X\	.	.	.	.	.	4cc\	.
!	!	!	!	!LO:TX:t=P:problem=kreska pseudotaktowa	!	!	!
4G\	.	.	.	2B-/	-o-	4b-\	.
!LO:TX:t=P:problem=kreska pseudotaktowa	!	!	!	!	!	!LO:SIC:o=4any\	!
4F\	.	.	.	.	.	4a-	.
=55-	=55-	=55-	=55-	=55-	=55-	=55-	=55-
2.E-X\	.	1.B-]	.	2.e-X\	-la-	2.g/	.
4E-,\	-ta	.	.	4e-\	-ta	4a\	-ta
!LO:TX:t=P:problem=kreska pseudotaktowa	!	!	!	!	!	!LO:TX:t=P:problem=kreska pseudotaktowa	!
2D\	per-	.	.	2f\	per-	2b-\	per-
*custos:E	*	*	*	*	*	*	*
!LO:LB:g=original	!	!	!	!	!	!	!
=56-	=56-	=56-	=56-	=56-	=56-	=56-	=56-
*xywh-#287:1262,3044,5874,748	*	*	*	*	*	*	*
2E-X\	-man-	(>1B-	-si-	2g\	-man-	2cc\	-man-
!	!	!	!	!LO:TX:t=P:problem=kreska pseudotaktowa	!	!	!
2F\	-si-	.	.	1f	-si-	1cc	-si-
!LO:TX:t=P:problem=kreska pseudotaktowa	!	!LO:TX:t=P:problem=kreska pseudotaktowa	!	!	!	!	!
2FF/	.	2Any\)	.	.	.	.	.
*	*	*custos:B	*	*	*	*	*
!	!	!LO:LB:g=original	!	!	!	!	!
=57-	=57-	=57-	=57-	=57-	=57-	=57-	=57-
*	*	*xywh-#197:1268,2908,5815,782	*	*	*	*	*
!	!LO:MO:mod=-sti	!	!	!	!	!	!
2BB-,/	-sti:	2B-,\	-sti	2f,\	-ſti,	2b-,\	-ſti
2B-\	et	2B-\	et	2f\	et	2dd\	et
!LO:TX:t=P:problem=kreska pseudotaktowa	!	!LO:TX:t=P:problem=kreska pseudotaktowa	!	!	!	!LO:TX:t=P:problem=kreska pseudotaktowa	!
2B-\	post	2B-\	post	2f\	post	2dd\	post
=58-	=58-	=58-	=58-	=58-	=58-	=58-	=58-
1B-	par-	1c	par-	1e-X	par-	1cc	par-
!LO:TX:t=P:problem=kreska pseudotaktowa	!	!LO:TX:t=P:problem=kreska pseudotaktowa	!	!	!	!	!
2Any\	-tum	2A/	-tum	2e-\	-tum	2cc\	-tum
=59-	=59-	=59-	=59-	=59-	=59-	=59-	=59-
1B-	Vir-	(>2.d\	Vir-	1d	vir-	1b-	Vir-
.	.	4c\)	.	.	.	.	.
!LO:TX:t=P:problem=kreska pseudotaktowa	!	!LO:TX:t=P:problem=kreska pseudotaktowa	!	!LO:TX:t=P:problem=kreska pseudotaktowa	!	!LO:TX:t=P:problem=kreska pseudotaktowa	!
2B-\	-go	2B-\	-go	2d\	-go	2b-\	-go
=60-	=60-	=60-	=60-	=60-	=60-	=60-	=60-
!LO:TX:t=P:problem=kreska pseudotaktowa	!	!LO:N:vis=0	!	!	!	!	!
1.r	.	0.r	.	2B-/	in-	2b-\	in-
.	.	.	.	2d\	-vi-	2b-\	-vi-
.	.	.	.	2B-/	-o-	2b-\	-o-
=61-	=61-	=61-	=61-	=61-	=61-	=61-	=61-
2E-X\	in-	.	.	1e-X	-la-	1.b-	-la-
2G\	-vi-	.	.	.	.	.	.
!LO:TX:t=P:problem=kreska pseudotaktowa	!	!	!	!LO:TX:t=P:problem=kreska pseudotaktowa	!	!	!
2E-\	-o-	.	.	2e-\	-ta	.	.
=62-	=62-	=62-	=62-	=62-	=62-	=62-	=62-
!	!	!LO:TX:t=P:problem=kreska pseudotaktowa	!	!LO:TX:t=P:problem=♭ above	!	!	!
2A-X\	-la-	1.r	.	[>1.e-X	per-	2cc\	.
(>4G\	.	.	.	.	.	4b-\	.
4A-\	.	.	.	.	.	4cc\	.
4G\	.	.	.	.	.	4b-\	.
!LO:TX:t=P:problem=kreska pseudotaktowa	!	!	!	!	!	!LO:TX:t=P:problem=kreska pseudotaktowa	!
4F\)	.	.	.	.	.	4a-X\	.
*	*	*	*	*	*	*custos:g	*
!	!	!	!	!	!	!LO:LB:g=original	!
=63-	=63-	=63-	=63-	=63-	=63-	=63-	=63-
*	*	*	*	*	*	*xywh-#36:7293,4167,5947,748	*
2E-X\	.	2B-\	in-	1.e-]	.	2g\	.
(4E-\	.	2d\	-vi-	.	.	4g\	.
4F\	.	.	.	.	.	4a-X\	.
!	!	!LO:TX:t=P:problem=kreska pseudotaktowa	!	!	!	!	!
4E-\	.	2B-\	-o-	.	.	4g\	.
!LO:TX:t=P:problem=kreska pseudotaktowa	!	!	!	!	!	!LO:TX:t=P:problem=kreska pseudotaktowa	!
4D\)	.	.	.	.	.	4f\	.
=64-	=64-	=64-	=64-	=64-	=64-	=64-	=64-
2C/	.	2e-X\	-la-	[1.e-	-man-	1e-X	.
4c\	.	4e-\	.	.	.	.	.
4d\	.	4f\	.	.	.	.	.
!	!	!	!	!	!	!LO:TX:t=P:problem=kreska pseudotaktowa	!
4c\	.	4e-\	.	.	.	2g/	.
!LO:TX:t=P:problem=kreska pseudotaktowa	!	!LO:TX:t=P:problem=kreska pseudotaktowa	!	!	!	!	!
4B-\	.	4d\	.	.	.	.	.
=65-	=65-	=65-	=65-	=65-	=65-	=65-	=65-
!LO:SIC:o=2.A-X\	!	!	!	!LO:TX:t=P:problem=kreska pseudotaktowa	!	!	!
2.A-)	.	2.c\	.	1.e-]	.	2.a-X\	.
4A-\	-ta	4c\	-ta	.	.	4a-\	-ta
!LO:TX:t=P:problem=kreska pseudotaktowa	!	!LO:TX:t=P:problem=kreska pseudotaktowa	!	!	!	!	!
2G\	per-	2B-\	per-	.	.	2b-\	per-
=66-	=66-	=66-	=66-	=66-	=66-	=66-	=66-
!	!	!	!	!LO:TX:t=P:problem=♭ above	!	!	!
2A-X\	-man-	2c\	-man-	(>1e-X	-si-	4a-X\	-man-
.	.	.	.	.	.	4g\	.
!	!LO:MO:null:mod=-si-	!LO:TX:t=P:problem=kreska pseudotaktowa	!	!	!	!LO:TX:t=P:problem=kreska pseudotaktowa	!
2B-\	.	1B-	-si-	.	.	1f	-si-
!LO:TX:t=P:problem=kreska pseudotaktowa	!LO:MO:mod=.	!	!	!	!	!	!
2BB-/	-si-	.	.	2d\)	.	.	.
*custos:E	*	*	*	*	*	*	*
!LO:LB:g=original	!	!	!	!	!	!	!
=67-	=67-	=67-	=67-	=67-	=67-	=67-	=67-
*xywh-#287:1271,3524,5817,787	*	*	*	*	*	*	*
1E-X,	-sti	1B-,	-ſti	1e-,	-sti	2g,\	-sti
!	!	!	!	!	!	!LO:TX:t=P:problem=kreska pseudotaktowa	!
.	.	.	.	.	.	1b-	per-
!LO:TX:t=P:problem=kreska pseudotaktowa	!	!	!	!LO:TX:t=P:problem=kreska pseudotaktowa	!	!	!
2D\	per-	2d\	per-	2f\	per-	.	.
*	*	*	*	*custos:g	*	*	*
!	!	!	!	!LO:LB:g=original	!	!	!
=68-	=68-	=68-	=68-	=68-	=68-	=68-	=68-
*	*	*	*	*xywh-#121:1370,3698,5878,701	*	*	*
2E-X\	-man-	2c\	-man-	2g\	-man-	2b-\	-man-
!	!LO:MO:null:mod=-si-	!	!	!	!	!	!
2F\	.	1c	-si-	1f	-si-	(>2b-\	-si-
!LO:TX:t=P:problem=kreska pseudotaktowa	!LO:MO:mod=.	!	!	!	!	!	!
2FF/	-si-	.	.	.	.	2any\)	.
=69-	=69-	=69-	=69-	=69-	=69-	=69-	=69-
1.BB-	-sti.	1.d	-ſti.	1.f	-sti.	1.b-	-sti.
*	*	*	*	*	*	*custos:a	*
!	!	!	!	!	!	!LO:TX:b:i:rj:mod= :t=Vertat	!
!	!	!	!	!	!	!LO:PB:g=original	!
!LO:MO:mod==70||	!LO:MO:mod==70||	!LO:MO:mod==70||	!LO:MO:mod==70||	!LO:MO:mod==70||	!LO:MO:mod==70||	!LO:MO:mod==70||	!LO:MO:mod==70||
=70-	=70-	=70-	=70-	=70-	=70-	=70-	=70-
*M2/1	*	*M2/1	*	*M2/1	*	*M2/1	*
*met(C|)	*	*met(C|)	*	*met(C|)	*	*met(C|)	*
*mmet(c|)	*	*mmet(c|)	*	*mmet(c|)	*	*mmet(c|)	*
*	*	*lig	*	*	*	*xywh-#37:909,583,6140,834	*
2.D/	De-	1F	De-	2.f\	De-	1a	De-
!LO:TX:t=P:problem=kreska pseudotaktowa	!	!	!	!LO:TX:t=P:problem=kreska pseudotaktowa	!	!	!
4C/	.	.	.	4e-X\	.	.	.
2.BB-/	.	1G	.	2d,\	-i	2b-\	-i
!	!	!	!	!	!LO:MO:mod=ge-	!	!LO:MO:mod=ge-
.	.	.	.	2.G/	Ge-	[<2dd\	Ge-
!LO:TX:t=P:problem=kreska pseudotaktowa	!	!	!	!	!	!	!
4AA/	.	.	.	.	.	.	.
!	!	!	!	!	!	!LO:TX:t=P:problem=kreska pseudotaktowa	!
*	*	*Xlig	*	*	*	*	*
=71-	=71-	=71-	=71-	=71-	=71-	=71-	=71-
!	!	!LO:TX:t=P:problem=kreska pseudotaktowa	!	!	!	!LO:N:xstem:cue	!
2GG,/	-i	1G	-i	.	.	4dd\]	.
.	.	.	.	4A/	.	4cc\	.
!	!LO:MO:mod=ge-	!	!	!	!	!	!
2.G\	Ge-	.	.	4B-/	.	2.b-\	.
!	!	!	!	!LO:TX:t=P:problem=kreska pseudotaktowa	!	!	!
.	.	.	.	4c/	.	.	.
*	*	*lig	*	*	*	*	*
!	!	!	!LO:MO:mod=ge-	!	!	!	!
.	.	1B-	Ge-	2.d\	.	.	.
4F\	.	.	.	.	.	4a\	.
!	!	!	!	!	!	!LO:MO:mod=[2g	!
4E-X\	.	.	.	.	.	1g\	.
!LO:TX:t=P:problem=kreska pseudotaktowa	!	!	!	!	!	!	!
4D\	.	.	.	4d\	ni-	.	.
=72-	=72-	=72-	=72-	=72-	=72-	=72-	=72-
!	!	!	!	!	!	!LO:MO:null:mod=2g]	!
2C/	.	1A	.	2e-X,\	-trix	.	.
!LO:TX:t=P:problem=kreska pseudotaktowa	!	!	!	!	!	!LO:TX:t=P:problem=kreska pseudotaktowa	!
2D/	.	.	.	2d\	De-	2f#X/	-ni-
*	*	*custos:B	*	*	*	*	*
*	*	*Xlig	*	*	*	*	*
*	*	*lig	*	*	*	*	*
*	*	*xywh-#197:1318,3489,5695,671	*	*	*	*	*
!	!	!LO:LB:g=original	!	!	!	!	!
!	!	!	!	!LO:TX:t=P:problem=kreska pseudotaktowa	!	!	!
2.GG/	.	1B-	.	2d\	-i	1g	-trix
!	!	!	!	!	!LO:MO:mod=ge-	!	!
.	.	.	.	2.B-/	Ge-	.	.
!LO:TX:t=P:problem=kreska pseudotaktowa	!	!	!	!	!	!	!
4AA/	.	.	.	.	.	.	.
=73-	=73-	=73-	=73-	=73-	=73-	=73-	=73-
2.BB-/	.	1G	.	.	.	2r	.
.	.	.	.	4c/	.	.	.
!	!	!	!	!	!	!LO:TX:t=P:problem=kreska pseudotaktowa	!
!	!	!	!	!LO:TX:t=P:problem=kreska pseudotaktowa	!	!	!LO:MO:mod=ge-
.	.	.	.	[<2d\	.	[<2dd\	Ge-
!LO:TX:t=P:problem=kreska pseudotaktowa	!	!	!	!	!	!	!
4C/	.	.	.	.	.	.	.
*	*	*Xlig	*	*	*	*	*
*	*	*lig	*	*	*	*	*
!LO:TX:t=P:problem=kreska pseudotaktowa	!	!	!	!LO:N:xstem:cue	!	!LO:N:xstem:cue	!
1D	.	1F	.	4d\]	.	4dd\]	.
.	.	.	.	4e-X\	.	4cc\	.
.	.	.	.	4f\	.	4b-\	.
!	!	!	!	!LO:TX:t=P:problem=kreska pseudotaktowa	!	!LO:TX:t=P:problem=kreska pseudotaktowa	!
.	.	.	.	4d\	.	4a\	.
=74-	=74-	=74-	=74-	=74-	=74-	=74-	=74-
2.E-X\	.	1G	.	4g\	.	4g\	.
.	.	.	.	4f\	.	4a\	.
!	!	!	!	!LO:TX:t=P:problem=kreska pseudotaktowa	!	!	!
.	.	.	.	2e-X\	.	2.b-\	.
!LO:TX:t=P:problem=kreska pseudotaktowa	!	!	!	!	!	!	!
4F\	.	.	.	.	.	.	.
*	*	*Xlig	*	*	*	*	*
*	*	*lig	*	*	*	*	*
!LO:TX:t=P:problem=kreska pseudotaktowa	!	!	!	!	!	!	!
1G	.	1B-	.	2d\	.	.	.
.	.	.	.	.	.	4fny/	.
.	.	.	.	2e-X\	.	1b-\	.
=75-	=75-	=75-	=75-	=75-	=75-	=75-	=75-
*	*	*col	*	*	*	*	*
2.F\	.	2.c\	.	2.f\	.	.	.
!	!	!	!	!	!	!LO:TX:t=P:problem=kreska pseudotaktowa	!
.	.	.	.	.	.	2a\	-ni-
*	*	*Xlig	*	*	*	*	*
!LO:TX:t=P:problem=kreska pseudotaktowa	!	!	!	!	!	!	!
4F\	-ni-	4B-\	-ni-	4f\	-ni-	.	.
*	*	*Xcol	*	*	*	*	*
!LO:TX:t=P:problem=kreska pseudotaktowa	!	!LO:TX:t=P:problem=kreska pseudotaktowa	!	!LO:TX:t=P:problem=kreska pseudotaktowa	!	!	!
1BB-	-trix	1B-	-trix	0d	-trix	2b-\	-trix
.	.	.	.	.	.	1ff\	in-
=76-	=76-	=76-	=76-	=76-	=76-	=76-	=76-
*	*	*lig	*	*	*	*	*
2r	.	1B-	in	.	.	.	.
1B-	in-	.	.	.	.	2ff\	-ter-
.	.	1c	.	2r	.	2ee-X\	-ce-
!LO:TX:t=P:problem=kreska pseudotaktowa	!	!	!	!	!	!LO:TX:t=P:problem=kreska pseudotaktowa	!
2Any\	-ter-	.	.	1f\	in-	2cc,\	-de
*custos:B	*	*Xlig	*	*	*	*	*
!LO:LB:g=original	!	!	!	!	!	!	!
=77-	=77-	=77-	=77-	=77-	=77-	=77-	=77-
*xywh-#287:1271,4062,5788,796	*	*lig	*	*	*	*lig	*
!LO:SIC:o=1B-	!	!	!	!	!	!	!
!LO:TX:t=P:problem=kreska pseudotaktowa	!	!	!	!	!	!	!LO:MO:mod=no-
(1B-	-ce-	1B-	ter-	.	.	1dd	pro
!	!	!	!	!LO:TX:t=P:problem=kreska pseudotaktowa	!	!	!
.	.	.	.	2f\	-ter-	.	.
!	!	!	!	!	!	!	!LO:MO:mod=.
2.F\	.	1A	.	4f\	-ce-	1cc	no-
.	.	.	.	4c\	.	.	.
.	.	.	.	2.f\	.	.	.
!LO:SIC:v:o=4Eny\	!	!	!	!	!	!	!
!LO:TX:t=P:problem=kreska pseudotaktowa	!	!	!	!	!	!	!
4E-	.	.	.	.	.	.	.
*	*	*Xlig	*	*	*	*Xlig	*
=78-	=78-	=78-	=78-	=78-	=78-	=78-	=78-
*	*	*lig	*	*	*	*	*
2.D/	.	1F	-ce-	.	.	2b-,\	-bis
.	.	.	.	4e-X\	.	.	.
!	!	!	!	!LO:TX:t=P:problem=kreska pseudotaktowa	!	!	!
.	.	.	.	[<2d\	.	1dd	in-
!LO:TX:t=P:problem=kreska pseudotaktowa	!	!	!	!	!	!	!
4C/	.	.	.	.	.	.	.
*	*	*	*	*custos:d	*	*	*
*	*	*	*	*xywh-#121:1317,4137,5965,851	*	*	*
!	!	!	!	!LO:LB:g=original	!	!	!
!	!	!	!	!LO:N:xstem:cue	!	!	!
4BB-/	.	1G	.	4d\]	.	.	.
4AA/	.	.	.	4c/	.	.	.
!LO:TX:t=P:problem=kreska pseudotaktowa	!	!	!	!	!	!LO:TX:t=P:problem=kreska pseudotaktowa	!
2GG/	.	.	.	4B-/	.	2dd\	-ter-
.	.	.	.	4A/	.	.	.
*	*	*Xlig	*	*	*	*	*
!	!	!	!	!	!	!LO:LB:g=original	!
=79-	=79-	=79-	=79-	=79-	=79-	=79-	=79-
*	*	*lig	*	*	*	*xywh-#37:1071,1279,5856,793	*
2.G\	.	1B-	.	2G/	.	2b-\	-ce-
!	!	!	!	!LO:MO:mod=[2g	!	!	!
.	.	.	.	2.g\	.	4g/	-de
!LO:TX:t=P:problem=kreska pseudotaktowa	!	!	!	!	!	!LO:TX:t=P:problem=kreska pseudotaktowa	!
4F\	.	.	.	.	.	4g/	pro
!	!	!	!	!LO:MO:null:mod=4g]	!	!	!
2.E-X\	.	1G	.	.	.	4g\	no-
.	.	.	.	4f\	.	4a\	.
!	!	!	!	!LO:TX:t=P:problem=kreska pseudotaktowa	!	!	!
.	.	.	.	[<2e-X\	.	2.b-\	.
!LO:TX:t=P:problem=kreska pseudotaktowa	!	!	!	!	!	!	!
4F\	.	.	.	.	.	.	.
*	*	*Xlig	*	*	*	*	*
=80-	=80-	=80-	=80-	=80-	=80-	=80-	=80-
!	!	!LO:TX:t=P:problem=kreska pseudotaktowa	!	!	!	!	!
4G\	.	1B-	-de	2e-\]	.	.	.
4A\	.	.	.	.	.	4cc\	.
!LO:TX:t=P:problem=kreska pseudotaktowa	!	!	!	!	!	!	!
(<2.B-\	.	.	.	2.d\	-de	2.dd\	.
!	!	!LO:TX:t=P:problem=kreska pseudotaktowa	!	!	!	!	!
.	.	1B-	pro	.	.	.	.
!LO:SIC:o=4A\)	!	!	!	!	!	!	!
4A	.	.	.	4d\	pro	4cc\	.
!LO:TX:t=P:problem=kreska pseudotaktowa	!	!	!	!LO:TX:t=P:problem=kreska pseudotaktowa	!	!	!
2G\	.	.	.	2e-X\	no-	1b-\	.
=81-	=81-	=81-	=81-	=81-	=81-	=81-	=81-
*	*	*lig	*	*	*	*	*
!LO:SIC:o=1F	!	!	!	!	!	!	!
!LO:TX:t=P:problem=kreska pseudotaktowa	!	!	!	!	!	!	!
1F)	.	1c	no-	2c/	.	.	.
.	.	.	.	1f	.	2a\	.
!	!	!	!	!	!	!LO:TX:t=P:problem=kreska pseudotaktowa	!
2BB-,/	-de	1B-	.	.	.	1b-	-bis.
1B-\	in-	.	.	2f\	.	.	.
*	*	*Xlig	*	*	*	*	*
=82-	=82-	=82-	=82-	=82-	=82-	=82-	=82-
*	*	*lig	*	*	*	*	*
!	!	!	!	!	!	!LO:TX:t=P:problem=kreska pseudotaktowa	!
.	.	1c	.	2e-X\	.	1r	.
!LO:TX:t=P:problem=kreska pseudotaktowa	!	!	!	!	!	!	!
2A\	-ter-	.	.	2c/	.	.	.
!	!	!LO:TX:t=P:problem=kreska pseudotaktowa lub skreślony dźwięk	!	!LO:TX:t=P:problem=kreska pseudotaktowa	!	!	!
(>4B-\	-ce-	1B-	.	1d	-bis	2r	.
4A\	.	.	.	.	.	.	.
4G\	.	.	.	.	.	1dd\	in-
!LO:SIC:o=4F\)	!	!	!	!	!	!	!
!LO:TX:t=P:problem=kreska pseudotaktowa	!	!	!	!	!	!	!
4F	.	.	.	.	.	.	.
*	*	*Xlig	*	*	*	*	*
=83-	=83-	=83-	=83-	=83-	=83-	=83-	=83-
*	*	*lig	*	*	*	*	*
!LO:TX:t=P:problem=kreska pseudotaktowa	!	!	!	!	!	!	!
1E-X	.	1G	.	2r	.	.	.
.	.	.	.	1g	in-	2cc\	-ter-
!LO:SIC:o=1D	!	!	!	!	!	!	!
!LO:TX:t=P:problem=kreska pseudotaktowa	!	!	!	!	!	!	!
1D)	.	1A	.	.	.	2.dd\	-ce-
!	!	!	!	!LO:TX:t=P:problem=kreska pseudotaktowa	!	!	!
.	.	.	.	2f#X\	-ter-	.	.
!	!	!	!	!	!	!LO:TX:t=P:problem=kreska pseudotaktowa	!
.	.	.	.	.	.	4cc\	.
*	*	*Xlig	*	*	*	*	*
=84-	=84-	=84-	=84-	=84-	=84-	=84-	=84-
2GG,/	-de	1B-	.	2g\	-ce-	2.b-\	.
!LO:TX:t=P:problem=kreska pseudotaktowa	!	!	!	!LO:TX:t=P:problem=kreska pseudotaktowa	!	!	!
[<2BB-/	pro	.	.	2d\	-de	.	.
.	.	.	.	.	.	4a\	.
*	*	*lig	*	*	*	*	*
!LO:N:xstem:cue	!	!	!	!	!	!	!
4BB-/]	.	1d	.	2r	.	4g\	.
4C/	.	.	.	.	.	4a\	.
*	*	*	*	*	*ij	*	*
4D/	.	.	.	1fny\	in-	1b-\	.
!LO:TX:t=P:problem=kreska pseudotaktowa	!	!	!	!	!	!	!
4E-X/	.	.	.	.	.	.	.
=85-	=85-	=85-	=85-	=85-	=85-	=85-	=85-
!LO:TX:t=P:problem=kreska pseudotaktowa	!	!	!	!	!	!	!
1F	no-	1c	.	.	.	.	.
!	!	!	!	!LO:TX:t=P:problem=kreska pseudotaktowa	!	!LO:TX:t=P:problem=kreska pseudotaktowa	!
.	.	.	.	2f\	-ter-	2a\	.
*	*	*Xlig	*	*	*	*	*
!LO:TX:t=P:problem=kreska pseudotaktowa	!	!	!	!	!	!	!
*	*	*lig	*	*	*	*	*
1BB-	-bis	1d	.	1f	-ce-	2b-\	-de
.	.	.	.	.	.	2b-\	pro
*custos:G	*	*	*	*	*	*	*
!LO:PB:g=original	!	!	!	!	!	!	!
=86-	=86-	=86-	=86-	=86-	=86-	=86-	=86-
*xywh-#287:7138,783,5903,691	*	*	*	*	*	*	*
!	!	!	!	!LO:TX:t=P:problem=kreska pseudotaktowa	!	!	!
2r	.	1B-	.	1d	-de	4dd\	no-
*	*	*	*	*	*Xij	*	*
.	.	.	.	.	.	4cc\	.
!LO:MO:mod=[2G	!	!	!	!	!	!	!
1G	in-	.	.	.	.	4b-\	.
!	!	!	!	!	!	!LO:TX:t=P:problem=kreska pseudotaktowa	!
.	.	.	.	.	.	4g/	.
*	*	*Xlig	*	*	*	*	*
*	*	*lig	*	*	*	*	*
!LO:MO:null:mod=2G]	!	!	!	!	!	!	!
.	.	1A	.	2r	.	2cc\	.
!LO:TX:t=P:problem=kreska pseudotaktowa	!	!	!	!	!	!	!
2F#X\	-ter-	.	.	1d\	in-	2a\	.
=87-	=87-	=87-	=87-	=87-	=87-	=87-	=87-
!LO:TX:t=P:problem=kreska pseudotaktowa	!	!	!	!	!	!	!
1G	-ce-	1G	.	.	.	2.b-\	.
!	!	!	!	!LO:TX:t=P:problem=kreska pseudotaktowa	!	!	!
.	.	.	.	2d\	-ter-	.	.
!	!	!	!	!	!	!LO:TX:t=P:problem=kreska pseudotaktowa	!
.	.	.	.	.	.	4a\	.
*	*	*Xlig	*	*	*	*custos:g	*
*	*	*lig	*	*	*	*xywh-#37:1111,1936,5937,753	*
!	!	!	!	!	!	!LO:LB:g=original	!
2C,/	-de	1G	.	2e-X\	-ce-	4g/	.
.	.	.	.	.	.	4f/	.
!LO:TX:t=P:problem=kreska pseudotaktowa	!	!	!	!	!	!	!
2C/	pro	.	.	4c/	-de	4g/	.
.	.	.	.	4c/	pro	4a\	.
=88-	=88-	=88-	=88-	=88-	=88-	=88-	=88-
!LO:TX:t=P:problem=kreska pseudotaktowa	!	!	!	!	!	!	!
1D	no-	1F	.	4f\	no-	4b-\	.
.	.	.	.	4e-\	.	4f/	.
.	.	.	.	4d\	.	2.b-\	.
!	!	!	!	!LO:TX:t=P:problem=kreska pseudotaktowa	!	!	!
.	.	.	.	4c\	.	.	.
*	*	*custos:G	*	*	*	*	*
*	*	*Xlig	*	*	*	*	*
*	*	*lig	*	*custos:B	*	*	*
*	*	*xywh-#197:1188,4051,2917,721	*	*xywh-#121:7264,712,5886,754	*	*	*
!	!	!LO:LB:g=original	!	!LO:PB:g=original	!	!	!
4E-X\	.	1G	.	2.B-/	.	.	.
4Fny\	.	.	.	.	.	4a\	.
!LO:TX:t=P:problem=kreska pseudotaktowa	!	!	!	!	!	!	!
[2G\	.	.	.	.	.	1g\	-bis
.	.	.	.	4c/	.	.	.
=89-	=89-	=89-	=89-	=89-	=89-	=89-	=89-
!LO:N:xstem:cue	!	!	!	!LO:TX:t=P:problem=kreska pseudotaktowa	!	!	!
4G\]	.	1B-	.	1d	-bis	.	.
4A\	.	.	.	.	.	.	.
!	!	!	!	!	!	!LO:TX:t=P:problem=kreska pseudotaktowa	!
1B-	.	.	.	.	.	2dd\	pro
*	*	*Xlig	*	*	*	*	*
*	*	*lig	*	*	*	*	*
.	.	1c	.	2r	.	2ee-X\	no-
!LO:TX:t=P:problem=kreska pseudotaktowa	!	!	!	!	!	!	!
2A\	.	.	.	1f\	in-	2cc\	.
=90-	=90-	=90-	=90-	=90-	=90-	=90-	=90-
!LO:TX:t=P:problem=kreska pseudotaktowa	!	!	!	!	!	!LO:TX:t=P:problem=kreska pseudotaktowa	!
1B-	.	1d	.	.	.	1b-	-bis
!	!	!	!	!LO:TX:t=P:problem=kreska pseudotaktowa	!	!	!
.	.	.	.	2f\	-ter-	.	.
*	*	*Xlig	*	*	*	*	*
*	*	*lig	*	*	*	*	*
2F,\	-bis	1c	.	1f	-ce-	2r	.
!LO:TX:t=P:problem=kreska pseudotaktowa	!	!	!	!	!	!	!
[y2F\	pro	.	.	.	.	1cc\	in-
=91-	=91-	=91-	=91-	=91-	=91-	=91-	=91-
!LO:N:xstem:cue	!	!	!	!LO:TX:t=P:problem=kreska pseudotaktowa	!	!	!
4F\]	.	1A	.	1f	-de	.	.
4G\	.	.	.	.	.	.	.
4A\	.	.	.	.	.	2cc\	-ter-
!LO:TX:t=P:problem=kreska pseudotaktowa	!	!	!	!	!	!	!
4F\	.	.	.	.	.	.	.
*	*	*Xlig	*	*	*	*	*
*	*	*lig	*	*	*	*	*
4G\	no-	1B-	.	2r	.	2b-\	-ce-
4GG/	.	.	.	.	.	.	.
!	!	!	!	!	!	!LO:TX:t=P:problem=kreska pseudotaktowa	!
4BB-/	.	.	.	1d\	in-	[<2g/	-de
!LO:TX:t=P:problem=kreska pseudotaktowa	!	!	!	!	!	!	!
4C/	.	.	.	.	.	.	.
=92-	=92-	=92-	=92-	=92-	=92-	=92-	=92-
!LO:TX:t=P:problem=kreska pseudotaktowa	!	!	!	!	!	!LO:N:xstem:cue	!
1D	.	1A	.	.	.	4g/]	.
.	.	.	.	.	.	4a\	pro
!	!	!	!	!LO:TX:t=P:problem=kreska pseudotaktowa	!	!	!
.	.	.	.	2d\	-ter-	2f#X/	no-
*	*	*Xlig	*	*	*	*	*
!LO:TX:t=P:problem=kreska pseudotaktowa	!	!LO:SIC:o=[1Gll;>\	!	!	!	!	!
1GG	-bis	[1G	-bis.	4d\	-ce-	2g,\	-bis
.	.	.	.	4c\	.	.	.
.	.	.	.	4B-/	.	1dd\	in-
.	.	.	.	4A/	.	.	.
=93-	=93-	=93-	=93-	=93-	=93-	=93-	=93-
2r	.	0G_	.	4G/	.	.	.
.	.	.	.	4A/	.	.	.
1G	in-	.	.	4B-/	.	2dd\	-ter-
!	!	!	!	!LO:TX:t=P:problem=kreska pseudotaktowa	!	!	!
.	.	.	.	4c/	.	.	.
!	!	!	!	!	!LO:MO:mod=.	!	!
.	.	.	.	2d\	-de	1b-	-ce-
!LO:TX:t=P:problem=kreska pseudotaktowa	!	!	!	!LO:TX:t=P:problem=kreska pseudotaktowa	!LO:MO:null:mod=-de	!	!
2G\	-ter-	.	.	2d\	.	.	.
=94-	=94-	=94-	=94-	=94-	=94-	=94-	=94-
!LO:TX:t=P:problem=kreska pseudotaktowa	!	!	!	!	!	!	!
1E-X	-ce-	0G_	.	2r	.	2g/	-de
.	.	.	.	1g	in-	2.g/	pro
2BBn,/	-de	.	.	.	.	.	.
.	.	.	.	.	.	4a\	.
!LO:TX:t=P:problem=kreska pseudotaktowa	!	!	!	!LO:TX:t=P:problem=kreska pseudotaktowa	!	!	!
2BB/	pro	.	.	2g\	-ter-	4bn\	.
!	!	!	!	!	!	!LO:TX:t=P:problem=kreska pseudotaktowa	!
.	.	.	.	.	.	4g\	.
=95-	=95-	=95-	=95-	=95-	=95-	=95-	=95-
0C	no-	0G_	.	2e-X,\	-ce-	4cc\	no-
.	.	.	.	.	.	4g\	.
.	.	.	.	4e-,\	-de	1.cc	.
!	!	!	!	!LO:TX:t=P:problem=kreska pseudotaktowa	!	!	!
.	.	.	.	4d\	pro	.	.
.	.	.	.	4c\	no-	.	.
.	.	.	.	4d\	.	.	.
.	.	.	.	4e-X\	.	.	.
.	.	.	.	4f\	.	.	.
=96-	=96-	=96-	=96-	=96-	=96-	=96-	=96-
!	!	!LO:SIC:o=0G]	!	!	!	!	!
0GG;>	-bis.	0G;]	.	0d;>	-bis.	0bn;>	-bis.
==	==	==	==	==	==	==	==
*-	*-	*-	*-	*-	*-	*-	*-
!!!system-decoration: [*]
!!!RDF**kern: > = above
!!!RDF**kern: < = below
!!LO:MO:ori
!!!RDF**kern: l = terminal long
!!LO:MO:end
!!!filter-modern: shed -k -e "s/[,]/$1/gD" | shed -e "s/^(\d+[\/\\]right)/$1yy/I; s/LO:N:/LO:n:$1/L; s/TX(.*):t=P:/tx$1:t=P:/LG; s/^custos:/Xcustos:/I" | shed -k -e "s/([^a-gA-Gn#X-])[<>]/$1/g" | sic -sq | modori -m | autostem -r | tie -s | humtr -p | shed -e "s/-//B"
!!!ENC: Andrzej Kubiczek
!!!END: 2021-02-25
!!!EED: Antoni Szymański
!!!EEV: 2021-03-13
!!!ENC-modern: Andrzej Kubiczek
!!!END-modern: 2023-07-25
!!!ENC-iiif: Konrad Tyszka
!!!END-iiif: 2022-09-01
